icons/progress-report-review.svg

<svg
  xmlns="http://www.w3.org/2000/svg"
  viewBox="0 0 500 500"
  width="500"
  height="500"
  fill="#ffffff"
>
  <rect x="216.24" y="152.49" width="20.01" height="144.15" />
  <rect x="160.65" y="224.57" width="20.01" height="72.07" />
  <rect x="105.05" y="261.29" width="20.01" height="35.35" />
  <polygon points="220.25 74.28 162.42 89.78 176.51 103.87 96.32 184.06 110.47 198.21 190.66 118.02 204.76 132.12 220.25 74.28" />
  <path d="M236.89 361.19H100.94a56.65 56.65 0 0 1-56.59-56.59v-223A56.65 56.65 0 0 1 100.94 25h194.49A56.65 56.65 0 0 1 352 81.6v173.14a131.38 131.38 0 0 1 13.37-.68q3.35 0 6.65.17V81.6A76.69 76.69 0 0 0 295.43 5H100.94a76.69 76.69 0 0 0-76.61 76.6v223a76.69 76.69 0 0 0 76.61 76.6h133.88a130.46 130.46 0 0 1 2.07-20.01z" />
  <path d="M350.32 337.82a32.49 32.49 0 1 0 32.49 32.49 32.53 32.53 0 0 0-32.49-32.49z" />
  <path d="M365.39 274.44a110.28 110.28 0 1 0 110.28 110.28 110.29 110.29 0 0 0-110.28-110.28zm53.36 177l-38.35-38.35a51.75 51.75 0 0 1-30.08 9.52 52.3 52.3 0 1 1 43.84-23.78l38.6 38.6z" />
  <path d="M291.86 277.34V97.12h-20v197.16a131.29 131.29 0 0 1 20-16.94z" />
</svg>

<svg xmlns="http://www.w3.org/2000/svg" viewBox="0 0 500 500">
  <defs>
    <style>
      .cls-1 {
        fill: #231f20;
      }
    </style>
  </defs>
  <g id="progress-report-review">
    <rect id="bar-2" class="cls-1" x="216.24" y="152.49" width="20.01" height="144.15"/>
    <rect id="bar-3" class="cls-1" x="160.65" y="224.57" width="20.01" height="72.07"/>
    <rect id="bar-4" class="cls-1" x="105.05" y="261.29" width="20.01" height="35.35"/>
    <polygon id="arrow" class="cls-1" points="220.25 74.28 162.42 89.78 176.51 103.87 96.32 184.06 110.47 198.21 190.66 118.02 204.76 132.12 220.25 74.28"/>
    <path id="outline" class="cls-1" d="M236.89,361.19H100.94A56.65,56.65,0,0,1,44.35,304.6V81.6A56.65,56.65,0,0,1,100.94,25H295.43A56.65,56.65,0,0,1,352,81.6V254.74a131.38,131.38,0,0,1,13.37-.68q3.35,0,6.65.17V81.6A76.69,76.69,0,0,0,295.43,5H100.94A76.69,76.69,0,0,0,24.33,81.6v223a76.69,76.69,0,0,0,76.61,76.6H234.82A130.46,130.46,0,0,1,236.89,361.19Z"/>
    <path id="review-inside" class="cls-1" d="M350.32,337.82a32.49,32.49,0,1,0,32.49,32.49A32.53,32.53,0,0,0,350.32,337.82Z"/>
    <path id="review-outline" class="cls-1" d="M365.39,274.44A110.28,110.28,0,1,0,475.67,384.72,110.29,110.29,0,0,0,365.39,274.44Zm53.36,177L380.4,413.09a51.75,51.75,0,0,1-30.08,9.52,52.3,52.3,0,1,1,43.84-23.78l38.6,38.6Z"/>
    <path id="bar-1" class="cls-1" d="M291.86,277.34V97.12h-20V294.28A131.29,131.29,0,0,1,291.86,277.34Z"/>
  </g>
</svg>
